X: 20667
T: John Walsh's
R: polka
M: 2/4
K: Gmajor
|:g2 gf/g/|ag ge|dB BA|GA Bd|
g2 gf/g/|ag ge|dB B/d/B/A/|G2 G2:|
|:G>A BA|GE ED|B,D ED|B,D ED|
G>A BA|GE ED|B,D ED|G4:|

